icons/id-badge-24.svg

<svg width="24" height="24" viewBox="0 0 24 24">
  <path
    d="M11 11.75C11 11.3358 11.3358 11 11.75 11H17.25C17.6642 11 18 11.3358 18 11.75C18 12.1642 17.6642 12.5 17.25 12.5H11.75C11.3358 12.5 11 12.1642 11 11.75Z"
  />
  <path
    d="M11 14.2752C11 13.861 11.3358 13.5252 11.75 13.5252H15.25C15.6642 13.5252 16 13.861 16 14.2752C16 14.6894 15.6642 15.0252 15.25 15.0252H11.75C11.3358 15.0252 11 14.6894 11 14.2752Z"
  />
  <path
    d="M6.5 10C6.22386 10 6 10.2239 6 10.5V15.5C6 15.7761 6.22386 16 6.5 16H9.5C9.77614 16 10 15.7761 10 15.5V10.5C10 10.2239 9.77614 10 9.5 10H6.5Z"
  />
  <path
    d="M10.75 2C9.7835 2 9 2.7835 9 3.75V6H3.75C2.7835 6 2 6.7835 2 7.75V18.25C2 19.2165 2.7835 20 3.75 20H20.25C21.2165 20 22 19.2165 22 18.25V7.75C22 6.7835 21.2165 6 20.25 6H15V3.75C15 2.7835 14.2165 2 13.25 2H10.75ZM10.5 3.75C10.5 3.61193 10.6119 3.5 10.75 3.5H13.25C13.3881 3.5 13.5 3.61193 13.5 3.75V7.25C13.5 7.38807 13.3881 7.5 13.25 7.5H10.75C10.6119 7.5 10.5 7.38807 10.5 7.25V3.75ZM14.9823 7.5C14.861 8.34807 14.1316 9 13.25 9H10.75C9.86838 9 9.13903 8.34807 9.01772 7.5H3.75C3.61193 7.5 3.5 7.61193 3.5 7.75V18.25C3.5 18.3881 3.61193 18.5 3.75 18.5H20.25C20.3881 18.5 20.5 18.3881 20.5 18.25V7.75C20.5 7.61193 20.3881 7.5 20.25 7.5H14.9823Z"
  />
</svg>

<svg xmlns="http://www.w3.org/2000/svg" width="24" height="24" viewBox="0 0 24 24"><path d="M11 11.75a.75.75 0 0 1 .75-.75h5.5a.75.75 0 0 1 0 1.5h-5.5a.75.75 0 0 1-.75-.75Zm0 2.525a.75.75 0 0 1 .75-.75h3.5a.75.75 0 0 1 0 1.5h-3.5a.75.75 0 0 1-.75-.75ZM6.5 10a.5.5 0 0 0-.5.5v5a.5.5 0 0 0 .5.5h3a.5.5 0 0 0 .5-.5v-5a.5.5 0 0 0-.5-.5h-3Z"/><path d="M10.75 2A1.75 1.75 0 0 0 9 3.75V6H3.75A1.75 1.75 0 0 0 2 7.75v10.5c0 .966.784 1.75 1.75 1.75h16.5A1.75 1.75 0 0 0 22 18.25V7.75A1.75 1.75 0 0 0 20.25 6H15V3.75A1.75 1.75 0 0 0 13.25 2h-2.5Zm-.25 1.75a.25.25 0 0 1 .25-.25h2.5a.25.25 0 0 1 .25.25v3.5a.25.25 0 0 1-.25.25h-2.5a.25.25 0 0 1-.25-.25v-3.5Zm4.482 3.75A1.75 1.75 0 0 1 13.25 9h-2.5a1.75 1.75 0 0 1-1.732-1.5H3.75a.25.25 0 0 0-.25.25v10.5c0 .138.112.25.25.25h16.5a.25.25 0 0 0 .25-.25V7.75a.25.25 0 0 0-.25-.25h-5.268Z"/></svg>
